src/assets/davis-cup.svg

<?xml version="1.0" encoding="UTF-8"?>
<svg width="800" height="131.2" version="1.1" viewBox="0 0 800 131.2" xmlns="http://www.w3.org/2000/svg">
 <ellipse cx="67.37" cy="65.59" rx="67.367" ry="65.598" fill="#fff" style="paint-order:stroke fill markers"/>
 <g clip-rule="evenodd" fill-rule="evenodd" stroke-width="5.486">
  <path d="m9.39 98.73-0.36757-0.57053z" fill="#259271"/>
  <path d="m67.38 0c-23.282 0-43.816 11.504-55.902 28.988 54.761 2.721 106.58 13.715 105.81 36.602 0.779 22.887-51.661 34.106-105.81 36.624 12.113 17.478 32.619 28.982 55.902 28.982 37.195 0 67.357-29.388 67.357-65.606s-30.162-65.59-67.357-65.59zm13.046 65.596c0-15.3-36.547-29.108-70.802-33.799a64.208 64.208 0 0 0 0 67.614c34.26-4.696 70.802-18.504 70.802-33.815z" fill="#259271"/>
  <path d="m624.52 91.25v-7.9162c-6.6984 7.3512-18.142 11.614-28.801 11.592-18.57-0.044-31.511-10.994-31.511-29.8 0-18.817 12.952-29.372 31.544-29.372 11.85 0 20.09 4.1254 27.205 12.442l-1.2014-15.015c-8.7446-1.9695-16.074-3.5165-26.184-3.5165-14.274 0-27.847 3.8786-36.69 12.267-6.9836 6.5173-11.087 15.267-11.087 23.463 0 8.185 4.1035 16.93 11.087 23.452 8.5416 8.0698 21.45 12.453 33.815 12.42 12.398 5e-3 24.138-3.7469 31.824-10.017zm-373.16-45.051c-8.4978-8.8324-23.864-14.988-47.448-14.988h-26.7c4.515 1.7939 5.8261 4.109 5.8261 11.147v57.405h23.249c21.11 0 35.39-5.0471 44.491-13.896 5.5682-5.4201 8.7995-12.568 8.7995-20.413 0-6.9233-2.7978-13.622-8.218-19.256zm-23.398 44.283c-6.1772 2.8911-22.037 3.5384-31.111 2.924v-55.831c11.065-1.0752 23.282 0.83935 29.284 3.9279 6.2265 3.1654 16.639 10.747 16.639 25.751 0 10.615-5.3982 18.8-14.812 23.228zm185.43-59.27c4.5314 1.7939 5.848 4.109 5.848 11.147v57.405h13.803v-68.552zm360.25 5.1897c-5.6121-3.4507-14.176-5.1897-26.486-5.1897h-28.511c4.5204 1.7939 5.8261 4.109 5.8261 11.147v57.405h13.825v-29.586c8.2728 0.87776 23.43 0.25785 29.229-1.7226 11.389-3.8786 14.829-11.197 14.829-17.198 0-5.8535-2.7101-11.164-8.7117-14.856zm-24.945 27.967c-2.4961 0-9.0024-0.11526-10.401-0.27978v-26.739c3.6536-0.38952 12.228-0.24689 15.887 0.46629 7.993 1.547 12.93 6.1388 12.93 13.484 5e-3 4.7728-2.3754 13.068-18.416 13.068zm-280.66-12.985c-4.8112-4.7563-3.7743-15.651 11.817-15.651 13.468 0 20.616 7.5377 20.616 7.5377l-0.93261-11.252s-9.1286-2.4138-19.832-2.4138c-17.495 0-25.488 9.7046-25.488 18.592 0 19.865 26.618 20.731 35.818 30.085 4.877 4.9154 4.6082 16.82-12.107 16.82-16.134 0-26.014-10.736-26.014-10.736l0.9765 12.064s12.431 4.899 25.021 4.899c16.875 0 27.117-8.4209 27.117-20.594-5e-3 -18.12-27.249-19.728-36.992-29.35zm235.97 19.393c0 10.533-2.0353 16.167-6.2375 20.863-5.9029 6.5777-15.224 9.6333-24.089 9.6553-5.3518 0.0128-10.66-0.96375-15.657-2.8801-11.131-4.3284-16.782-12.826-16.782-26.925v-29.13c0-7.0385-1.2947-9.3536-5.8261-11.147h19.64v39.932c0 9.4523 1.4812 13.309 4.6192 16.82 3.7305 4.2022 9.6333 5.9029 15.662 5.9029 6.1827 0 12.365-1.6622 16.557-6.0949 3.0557-3.2916 4.7673-7.631 4.7673-17.336v-39.225h7.3402zm-350.9-31.659 20.035 40.283 21.708-48.194h8.0918l-33.025 71.948s-28.417-54.925-31.478-60.801c-3.6317-7.0385-6.1498-9.3536-11.603-11.147h22.745c0.74061 2.2547 1.9311 4.9867 3.5275 7.9108zm-30.721 60.642h16.134c-11.208-22.662-34.145-68.525-34.156-68.552h-17.012c1.4428 0.41145 2.5126 1.942 2.8417 3.0721 0.78449 2.7704-0.0275 6.7532-2.1889 11.564l-24.034 53.916h8.015l8.6459-19.541h32.016zm-26.689-54.613 13.6 28.735h-26.135zm497.7-13.035c3.2148 0 5.5737 2.5071 5.5737 5.7164 0 3.1764-2.359 5.6834-5.5737 5.6834-3.1819 0-5.5518-2.5071-5.5518-5.6834 0-3.2093 2.3699-5.7164 5.5518-5.7164zm0-0.95455c-3.6975 0-6.5557 2.924-6.5557 6.6764 0 3.7305 2.8582 6.649 6.5557 6.649 3.681 0.0409 6.6679-2.9683 6.5996-6.649 0-3.7524-2.8637-6.6764-6.5996-6.6764zm-1.4264 7.1098h1.5854l2.1231 3.4068h1.1027l-2.2712-3.4068c1.0204-0.17006 1.9311-0.80643 1.9311-2.167 0-1.377-0.77353-2.1285-2.4851-2.1285h-2.9569v7.6968h0.97651v-3.4013zm0-0.80643v-2.6936h1.7062c0.93261 0 1.7884 0.26334 1.7884 1.3331 0 1.3166-1.1136 1.3605-2.2602 1.3605z"/>
 </g>
</svg>

<?xml version="1.0" encoding="UTF-8" standalone="no"?>
<!DOCTYPE svg PUBLIC "-//W3C//DTD SVG 1.1//EN" "http://www.w3.org/Graphics/SVG/1.1/DTD/svg11.dtd">
<svg width="100%" height="100%" viewBox="0 0 800 132" version="1.1" xmlns="http://www.w3.org/2000/svg" xmlns:xlink="http://www.w3.org/1999/xlink" xml:space="preserve" xmlns:serif="http://www.serif.com/" style="fill-rule:evenodd;clip-rule:evenodd;stroke-linejoin:round;stroke-miterlimit:2;">
    <ellipse cx="67.37" cy="65.59" rx="67.367" ry="65.598" style="fill:white;"/>
    <g>
        <path d="M9.39,98.73L9.022,98.159L9.39,98.73Z" style="fill:rgb(37,146,113);"/>
        <path d="M67.38,0C44.098,0 23.564,11.504 11.478,28.988C66.239,31.709 118.058,42.703 117.288,65.59C118.067,88.477 65.627,99.696 11.478,102.214C23.591,119.692 44.097,131.196 67.38,131.196C104.575,131.196 134.737,101.808 134.737,65.59C134.737,29.372 104.575,0 67.38,0ZM80.426,65.596C80.426,50.296 43.879,36.488 9.624,31.797C-3.184,52.477 -3.184,78.731 9.624,99.411C43.884,94.715 80.426,80.907 80.426,65.596Z" style="fill:rgb(37,146,113);"/>
        <path d="M624.52,91.25L624.52,83.334C617.822,90.685 606.378,94.948 595.719,94.926C577.149,94.882 564.208,83.932 564.208,65.126C564.208,46.309 577.16,35.754 595.752,35.754C607.602,35.754 615.842,39.879 622.957,48.196L621.756,33.181C613.011,31.211 605.682,29.664 595.572,29.664C581.298,29.664 567.725,33.543 558.882,41.931C551.898,48.449 547.795,57.198 547.795,65.394C547.795,73.579 551.898,82.324 558.882,88.846C567.423,96.916 580.332,101.299 592.697,101.266C605.095,101.271 616.835,97.519 624.521,91.249L624.52,91.25ZM251.36,46.199C242.862,37.367 227.496,31.211 203.912,31.211L177.212,31.211C181.727,33.005 183.038,35.32 183.038,42.358L183.038,99.763L206.287,99.763C227.397,99.763 241.677,94.716 250.778,85.867C256.346,80.447 259.578,73.299 259.578,65.454C259.578,58.531 256.78,51.832 251.36,46.198L251.36,46.199ZM227.962,90.482C221.785,93.373 205.925,94.02 196.851,93.406L196.851,37.575C207.916,36.5 220.133,38.414 226.135,41.503C232.361,44.668 242.774,52.25 242.774,67.254C242.774,77.869 237.376,86.054 227.962,90.482L227.962,90.482ZM413.392,31.212C417.923,33.006 419.24,35.321 419.24,42.359L419.24,99.764L433.043,99.764L433.043,31.212L413.392,31.212ZM773.642,36.402C768.03,32.951 759.466,31.212 747.156,31.212L718.645,31.212C723.165,33.006 724.471,35.321 724.471,42.359L724.471,99.764L738.296,99.764L738.296,70.178C746.569,71.056 761.726,70.436 767.525,68.455C778.914,64.577 782.354,57.258 782.354,51.257C782.354,45.404 779.644,40.093 773.642,36.401L773.642,36.402ZM748.697,64.369C746.201,64.369 739.695,64.253 738.296,64.089L738.296,37.35C741.95,36.96 750.524,37.103 754.183,37.816C762.176,39.363 767.113,43.955 767.113,51.3C767.118,56.073 764.738,64.368 748.697,64.368L748.697,64.369ZM468.037,51.384C463.226,46.627 464.263,35.733 479.854,35.733C493.322,35.733 500.47,43.27 500.47,43.27L499.537,32.018C499.537,32.018 490.409,29.605 479.705,29.605C462.21,29.605 454.217,39.309 454.217,48.197C454.217,68.062 480.835,68.928 490.035,78.282C494.912,83.197 494.644,95.102 477.928,95.102C461.794,95.102 451.914,84.366 451.914,84.366L452.891,96.43C452.891,96.43 465.322,101.329 477.912,101.329C494.787,101.329 505.029,92.908 505.029,80.735C505.024,62.615 477.78,61.007 468.037,51.385L468.037,51.384ZM704.007,70.777C704.007,81.31 701.972,86.944 697.769,91.64C691.867,98.217 682.545,101.273 673.68,101.295C668.329,101.308 663.021,100.331 658.023,98.415C646.892,94.086 641.241,85.589 641.241,71.49L641.241,42.36C641.241,35.321 639.947,33.006 635.415,31.213L655.055,31.213L655.055,71.145C655.055,80.597 656.537,84.454 659.675,87.965C663.405,92.167 669.308,93.868 675.337,93.868C681.519,93.868 687.702,92.206 691.894,87.773C694.949,84.481 696.661,80.142 696.661,70.437L696.661,31.212L704.001,31.212L704.007,70.777ZM353.107,39.118L373.142,79.401L394.85,31.207L402.942,31.207L369.917,103.155C369.917,103.155 341.5,48.23 338.439,42.354C334.807,35.315 332.289,33 326.836,31.207L349.581,31.207C350.321,33.461 351.512,36.193 353.108,39.117L353.107,39.118ZM322.386,99.76L338.52,99.76C327.312,77.098 304.375,31.235 304.364,31.208L287.352,31.208C288.795,31.619 289.865,33.15 290.194,34.28C290.978,37.05 290.166,41.033 288.005,45.844L263.971,99.76L271.986,99.76L280.632,80.219L312.648,80.219L322.386,99.76ZM295.697,45.147L309.297,73.882L283.162,73.882L295.697,45.147ZM793.397,32.112C796.612,32.112 798.971,34.619 798.971,37.828C798.971,41.005 796.612,43.512 793.397,43.512C790.215,43.512 787.845,41.004 787.845,37.828C787.845,34.619 790.215,32.112 793.397,32.112ZM793.397,31.157C789.699,31.157 786.841,34.081 786.841,37.834C786.841,41.564 789.699,44.483 793.397,44.483C797.078,44.523 800.065,41.514 799.997,37.834C799.997,34.081 797.133,31.157 793.397,31.157ZM791.971,38.267L793.556,38.267L795.679,41.674L796.782,41.674L794.511,38.267C795.531,38.097 796.442,37.461 796.442,36.1C796.442,34.723 795.668,33.971 793.957,33.971L791,33.971L791,41.668L791.976,41.668L791.976,38.267L791.971,38.267ZM791.971,37.461L791.971,34.767L793.677,34.767C794.609,34.767 795.465,35.03 795.465,36.1C795.465,37.417 794.352,37.461 793.205,37.461L791.971,37.461Z"/>
    </g>
</svg>
